docs/static/img/social_media/github.svg

<svg width="16" height="16" viewBox="0 0 16 16" fill="none" xmlns="http://www.w3.org/2000/svg">
<path d="M8.00179 0.00586006C3.58078 0.0040252 0 3.67742 0 8.21136C0 11.7967 2.24 14.8444 5.35955 15.9637C5.77966 16.0719 5.71531 15.7655 5.71531 15.5563V14.1343C3.28939 14.426 3.19106 12.7783 3.02838 12.5031C2.69944 11.927 1.92179 11.7802 2.15419 11.5049C2.70659 11.2132 3.26972 11.5783 3.92223 12.5673C4.39419 13.2848 5.31486 13.1637 5.78145 13.0444C5.88335 12.6132 6.10145 12.2279 6.40179 11.9288C3.88827 11.4664 2.84067 9.8921 2.84067 8.02054C2.84067 7.11228 3.13207 6.27742 3.70413 5.60402C3.33944 4.49393 3.7381 3.54347 3.79173 3.40219C4.83039 3.30678 5.91017 4.16549 5.99419 4.23338C6.58413 4.07008 7.2581 3.98384 8.01251 3.98384C8.7705 3.98384 9.44626 4.07375 10.0416 4.23889C10.2436 4.08109 11.2447 3.34347 12.2101 3.43338C12.2619 3.57467 12.6516 4.50311 12.3084 5.59852C12.8876 6.27375 13.1826 7.11595 13.1826 8.02604C13.1826 9.90127 12.1278 11.4774 9.60715 11.9325C9.82305 12.1504 9.99448 12.4103 10.1114 12.697C10.2284 12.9837 10.2885 13.2914 10.2883 13.6022V15.6664C10.3026 15.8315 10.2883 15.9949 10.5564 15.9949C13.7225 14.8994 16.0018 11.8297 16.0018 8.2132C16.0018 3.67742 12.4192 0.00586006 8.00179 0.00586006Z" fill="#62A7BD"/>
</svg>

<svg xmlns="http://www.w3.org/2000/svg" width="16" height="16" fill="none" xmlns:v="https://vecta.io/nano"><path d="M8.002.006C3.581.004 0 3.677 0 8.211c0 3.585 2.24 6.633 5.36 7.752.42.108.356-.198.356-.407v-1.422c-2.426.292-2.524-1.356-2.687-1.631-.329-.576-1.107-.723-.874-.998.552-.292 1.116.073 1.768 1.062.472.718 1.393.596 1.859.477a2.33 2.33 0 0 1 .62-1.116c-2.514-.462-3.561-2.037-3.561-3.908 0-.908.291-1.743.863-2.417-.365-1.11.034-2.061.088-2.202 1.039-.095 2.118.763 2.202.831.59-.163 1.264-.25 2.018-.25s1.434.09 2.029.255c.202-.158 1.203-.895 2.169-.806.052.141.441 1.07.098 2.165.579.675.874 1.517.874 2.428 0 1.875-1.055 3.451-3.575 3.906.216.218.387.478.504.765a2.39 2.39 0 0 1 .177.905v2.064c.014.165 0 .329.268.329 3.166-1.095 5.445-4.165 5.445-7.782 0-4.536-3.583-8.207-8-8.207z" fill="#62a7bd"/></svg>
